public/static/img/assets/future.svg

<svg width="14" height="14" viewBox="0 0 14 14" fill="none" xmlns="http://www.w3.org/2000/svg">
<g clip-path="url(#clip0_335_5239)">
<path d="M0.112 7.308H2.632V12.74C2.632 12.9055 2.59941 13.0693 2.53609 13.2222C2.47277 13.3751 2.37996 13.514 2.26295 13.631C2.14595 13.748 2.00705 13.8408 1.85418 13.9041C1.70131 13.9674 1.53746 14 1.372 14C1.03783 14 0.717341 13.8673 0.481045 13.631C0.244749 13.3947 0.112 13.0742 0.112 12.74V7.308ZM12.146 13.9499L2.1117 14C2.1117 14 2.96038 13.2686 2.96038 12.2069V0H13.8434V12.25C13.8435 12.4731 13.7998 12.694 13.7146 12.9001C13.6294 13.1063 13.5044 13.2936 13.3468 13.4515C13.1891 13.6093 13.002 13.7346 12.796 13.8201C12.5899 13.9056 12.3691 13.9497 12.146 13.9499ZM5.46 11.872H11.284V10.304H5.46V11.872ZM8.512 2.016C7.85853 2.016 7.21974 2.20978 6.6764 2.57282C6.13306 2.93587 5.70957 3.45189 5.4595 4.05561C5.20943 4.65934 5.144 5.32367 5.27149 5.96458C5.39897 6.60549 5.71365 7.19421 6.17572 7.65628C6.63779 8.11835 7.22651 8.43303 7.86742 8.56051C8.50833 8.688 9.17266 8.62257 9.77639 8.3725C10.3801 8.12243 10.8961 7.69894 11.2592 7.1556C11.6222 6.61226 11.816 5.97347 11.816 5.32C11.816 4.44372 11.4679 3.60334 10.8483 2.98372C10.2287 2.3641 9.38827 2.016 8.512 2.016ZM6.74442 5.32L8.512 3.55247L10.2796 5.32L8.512 7.08767L6.74442 5.32Z" fill="#171717"/>
</g>
<defs>
<clipPath id="clip0_335_5239">
<rect width="14" height="14" fill="white"/>
</clipPath>
</defs>
</svg>

<svg width="14" height="14" fill="none" xmlns="http://www.w3.org/2000/svg"><g clip-path="url(#a)"><path d="M.112 7.308h2.52v5.432a1.26 1.26 0 1 1-2.52 0V7.308Zm12.034 6.642L2.112 14s.848-.731.848-1.793V0h10.883v12.25a1.7 1.7 0 0 1-1.697 1.7ZM5.46 11.872h5.824v-1.568H5.46v1.568Zm3.052-9.856a3.304 3.304 0 1 0 0 6.608 3.304 3.304 0 0 0 0-6.608ZM6.744 5.32l1.768-1.768L10.28 5.32 8.512 7.088 6.744 5.32Z" fill="#171717"/></g><defs><clipPath id="a"><path fill="#fff" d="M0 0h14v14H0z"/></clipPath></defs></svg>
